packages/assets/static/images/icons/hospital.svg

<svg width="24" height="24" viewBox="0 0 24 24" xmlns="http://www.w3.org/2000/svg">
<path d="M21.9374 19.1255H21.5624V12.0005C21.5624 11.5032 21.3649 11.0263 21.0133 10.6747C20.6616 10.323 20.1847 10.1255 19.6874 10.1255H15.1874V4.50049C15.1874 4.00321 14.9899 3.52629 14.6383 3.17466C14.2866 2.82303 13.8097 2.62549 13.3124 2.62549H4.31244C3.81516 2.62549 3.33824 2.82303 2.98661 3.17466C2.63498 3.52629 2.43744 4.00321 2.43744 4.50049V19.1255H2.06244C1.76407 19.1255 1.47792 19.244 1.26694 19.455C1.05597 19.666 0.937439 19.9521 0.937439 20.2505C0.937439 20.5489 1.05597 20.835 1.26694 21.046C1.47792 21.257 1.76407 21.3755 2.06244 21.3755H21.9374C22.2358 21.3755 22.522 21.257 22.7329 21.046C22.9439 20.835 23.0624 20.5489 23.0624 20.2505C23.0624 19.9521 22.9439 19.666 22.7329 19.455C22.522 19.244 22.2358 19.1255 21.9374 19.1255ZM19.3124 12.3755V19.1255H15.1874V12.3755H19.3124ZM4.68744 4.87549H12.9374V19.1255H11.8124V15.0005C11.8124 14.7021 11.6939 14.416 11.4829 14.205C11.272 13.994 10.9858 13.8755 10.6874 13.8755H6.93744C6.63907 13.8755 6.35292 13.994 6.14194 14.205C5.93097 14.416 5.81244 14.7021 5.81244 15.0005V19.1255H4.68744V4.87549ZM9.56244 19.1255H8.06244V16.1255H9.56244V19.1255ZM5.81244 9.00049C5.81244 8.70212 5.93097 8.41597 6.14194 8.20499C6.35292 7.99401 6.63907 7.87549 6.93744 7.87549H7.68744V7.12549C7.68744 6.82712 7.80597 6.54097 8.01694 6.32999C8.22792 6.11901 8.51407 6.00049 8.81244 6.00049C9.11081 6.00049 9.39696 6.11901 9.60793 6.32999C9.81891 6.54097 9.93744 6.82712 9.93744 7.12549V7.87549H10.6874C10.9858 7.87549 11.272 7.99401 11.4829 8.20499C11.6939 8.41597 11.8124 8.70212 11.8124 9.00049C11.8124 9.29886 11.6939 9.58501 11.4829 9.79598C11.272 10.007 10.9858 10.1255 10.6874 10.1255H9.93744V10.8755C9.93744 11.1739 9.81891 11.46 9.60793 11.671C9.39696 11.882 9.11081 12.0005 8.81244 12.0005C8.51407 12.0005 8.22792 11.882 8.01694 11.671C7.80597 11.46 7.68744 11.1739 7.68744 10.8755V10.1255H6.93744C6.63907 10.1255 6.35292 10.007 6.14194 9.79598C5.93097 9.58501 5.81244 9.29886 5.81244 9.00049Z"/>
</svg>

<svg viewBox="0 0 24 24" xmlns="http://www.w3.org/2000/svg" aria-hidden="true" fill="currentColor" height="24px" width="24px"><path d="M21.937 19.126h-.375V12a1.875 1.875 0 0 0-1.875-1.874h-4.5V4.5a1.875 1.875 0 0 0-1.875-1.875h-9A1.875 1.875 0 0 0 2.437 4.5v14.625h-.375a1.125 1.125 0 1 0 0 2.25h19.875a1.125 1.125 0 1 0 0-2.25m-2.625-6.75v6.75h-4.125v-6.75zm-14.625-7.5h8.25v14.25h-1.125V15a1.125 1.125 0 0 0-1.125-1.124h-3.75A1.125 1.125 0 0 0 5.812 15v4.124H4.687zm4.875 14.25h-1.5v-3h1.5zM5.812 9a1.125 1.125 0 0 1 1.125-1.125h.75v-.75a1.125 1.125 0 0 1 2.25 0v.75h.75a1.125 1.125 0 1 1 0 2.25h-.75v.75a1.125 1.125 0 1 1-2.25 0v-.75h-.75A1.125 1.125 0 0 1 5.812 9"/></svg>
